X:1
L:1/8
M:2/2
K:D
 A2 FA BAFA | A2 FA BAFA | B2 cA BAcA | BAcA BAFA | A2 FA BAFA | A2 FA BAFE | FABc dcdB |1 
 AFEF D2 FG :|2 AFEF D3 F |: Ad d2 Ad d2 | Ad d2 BAFA | B2 cA BAcA | BAcA BAFA | Ad d2 Ad d2 | 
 Ad d2 BAFE | FABc dcdB |1 AFEF D3 F :|2 AFEF D2 FG |]""^Or:"" A2 FA BAFG | A2 FA BAFA | B2 cA BAcA | 
 BAcA BAFG | A2 FA BAFG | A2 FA BAFE | FABc dcdB |1 AFEF D2 FG :|2 AFEF D3 F |: Ad d2 Ad d2 | 
 Ad d2 BAFA | B2 cA BAcA | BAcA BAFG | Ad d2 Ad d2 | Ad d2 BAFE | FABc dcdB |1 AFEF D3 F :|2 
 AFEF D2 FG |]
